X: 2
T: The Bucks Of Oranmore
R: reel
M: 4/4
L: 1/8
K: Dmaj
dB|{G}A2FA ~A2dB|~A2FA BE~E2|~A2FB ~A2B/c/d|ed{g}fd efdB|~A2FA- ~A2dB|AzFA BE~E2|DE{F}ED ~A3B|dzfd efdB|AD~D2 ADBD|AD~D2 BE~E2|AD~D2 ~A3B|dzfd efdB|AD~D2 AD~D2|AD~D2 BE~E2|~D3F ~A3B|dzfd efdf||Ja2{g}fd efdf|adfd edB/c/d|azfd ~e3f|{g}fe{f}ed edB/c/d|azfd efdf|adfd edB/c/d|fa~a2 bzaf|ea{g}fd efdf-||~f2df efdf-|~f2df {f}edB/c/d|~f2df ~e3f|{g}fe{f}ed edB/c/d|fzdf efdf-|~f2df {f}edB/c/d|fa~a2 bzaf|ea{g}fd efdB||Ad{g}fd ed{g}fd|Ad{g}fd edB/c/d|azfd ~e3f|{g}fe{f}ed edB/c/d|Ad{g}fd ed{g}fd|Ad{g}fd edB/c/d|fa~a2 bzaf|ea{g}fd efdB||~A2FA- ~A2dB|~A2FA BE~E2|~A2FB AzB/c/d|gBfB eBdB|~A2DA- ~A2DA-|~A2Fz BE~E2|DE{F}ED ~A3B|dzfd efdB|AD~D2 ADBD|AD~D2 BE~E2|AD~D2 ~A3B|dzfd efdB|AD~D2 ADBD|AD~D2 BE~E2|d2fd ~A3B|dzfd efdf||Ja2fd efdf|ad{g}fd edB/c/d|azfd ~e3f|{g}fe{f}ed edB/c/d|~a2fd efdf|ad{g}fd edB/c/d|fa~a2 bzaf|ea{g}fd efdg||~f2df efdf-|~f2df {f}edB/c/d|fzdf ~e3f|{g}fe{f}ed edB/c/d|~f2dz efdf-|~f2df {f}edB/c/d|fa~a2 bzaf|ea{g}fd efdB||Ad{g}fd ed{g}fd|Ad{g}fd edB/c/d|azfd ~e3f|{g}fe{f}ed edB/c/d|Ad{g}fd ed{g}fd|Ad{g}fd edB/c/d|fa~a2 bzaf|ea{g}fd efdB||~A2FA- ~A2dB|AzFA BE~E2|~A2FB ~A2B/c/d|gdfd efdB|~A2FA- ~A2dB|~A2Fz BE~E2|DE{A}FD ~A3B|dzfd efdB|AD~D2 ADBD|AD~D2 BE~E2|AD~D2 ~A3B|dzfd efdB|AD~D2 AD~D2|AD~D2 BE~E2|dzfd ~A3B|defd efgb||azfd efdf|adfd edB/c/d|~a2fd ~e3f|{g}fe{f}ed edB/c/d|azfd efdf|adfd edB/c/d|fa~a2 bzaf|ea{g}fd efdf-||~f2df efdf-|~f2df {f}edB/c/d|~f2df ~e3f|gzfd edB/c/d|~f2df efdf-|~f2df {f}edB/c/d|fa~a2 bzaf|ea{g}fd efdB||Ad{g}fd ed{g}fd|Ad{g}fd edB/c/d|azfd ~e3f|{g}fe{f}ed edB/c/d|Ad{g}fd ed{g}fd|Ad{g}fd edB/c/d|fa~a2 ba{b}af|ea{g}fd efdB||A2.F.E D4||


Tune 2	Setting 24425

